common/src/main/resources/files/plugins/datagrip/sqlServerFileType.svg

<!--
  - The MIT License (MIT)
  -
  - Copyright (c) 2015-2024 Elior "Mallowigi" Boukhobza
  -
  - Permission is hereby granted, free of charge, to any person obtaining a copy
  - of this software and associated documentation files (the "Software"), to deal
  - in the Software without restriction, including without limitation the rights
  - to use, copy, modify, merge, publish, distribute, sublicense, and/or sell
  - copies of the Software, and to permit persons to whom the Software is
  - furnished to do so, subject to the following conditions:
  -
  - The above copyright notice and this permission notice shall be included in all
  - copies or substantial portions of the Software.
  -
  - THE SOFTWARE IS PROVIDED "AS IS", WITHOUT WARRANTY OF ANY KIND, EXPRESS OR
  - IMPLIED, INCLUDING BUT NOT LIMITED TO THE WARRANTIES OF MERCHANTABILITY,
  - FITNESS FOR A PARTICULAR PURPOSE AND NONINFRINGEMENT. IN NO EVENT SHALL THE
  - AUTHORS OR COPYRIGHT HOLDERS BE LIABLE FOR ANY CLAIM, DAMAGES OR OTHER
  - LIABILITY, WHETHER IN AN ACTION OF CONTRACT, TORT OR OTHERWISE, ARISING FROM,
  - OUT OF OR IN CONNECTION WITH THE SOFTWARE OR THE USE OR OTHER DEALINGS IN THE
  - SOFTWARE.
  -->
<svg data-big="true" width="16px" height="16px" viewBox="0 0 16 16" fill="#F26522" xmlns="http://www.w3.org/2000/svg">
  <path fill-rule="evenodd" clip-rule="evenodd"
        d="M4.13689 2.65805C4.1644 2.72569 4.27009 2.80813 4.361 2.89273C4.361 2.89273 5.3019 3.81037 5.41609 3.94148C5.93621 4.54195 6.16246 5.13399 6.18361 5.95016C6.1963 6.47453 6.09689 6.93547 5.84953 7.47042C5.40973 8.43037 4.48149 9.48969 3.05005 10.6653L3.25941 10.5955C3.39472 10.494 3.57868 10.3862 4.01001 10.1494C5.00587 9.60384 6.12651 9.10273 7.50089 8.58682C9.47992 7.84253 14.7786 6.65846 14.7786 6.65846C14.7786 6.65846 14.4636 6.18696 14.324 6.01358C13.9181 5.51034 13.4254 5.10228 12.8228 4.76397C11.994 4.30094 10.9219 3.93937 9.56452 3.67084C9.30868 3.62007 8.74625 3.52282 8.28954 3.45305C7.32113 3.30296 6.69527 3.19934 6.00599 3.08093C5.75863 3.03862 5.38857 2.97521 5.1433 2.92236C5.01644 2.89484 4.77331 2.83777 4.58301 2.77222C4.43078 2.71299 4.21086 2.65379 4.16434 2.47406C4.16434 2.47406 4.09249 2.54809 4.13689 2.65805ZM5.61061 3.33676C5.62544 3.35157 5.95446 4.21479 5.95446 4.21479C5.95446 4.21479 5.85426 4.06576 5.55219 3.72482C5.25174 3.3857 5.00004 3.12413 5.00004 3.15281C5.00004 3.15281 5.59578 3.32195 5.61061 3.33676ZM7.1676 3.6095L6.23608 4.35797C6.23608 4.35797 5.98721 3.41321 5.98721 3.409C5.99993 3.41112 7.1676 3.6095 7.1676 3.6095ZM7.73981 5.04518C7.73981 5.04518 6.39509 4.64768 6.39509 4.64345C6.39509 4.63075 7.56219 3.63276 7.58123 3.63911L7.73981 5.04518ZM8.99789 3.88014C9.29181 3.93722 9.71891 4.02604 9.74427 4.03662C9.75695 4.04084 9.71254 4.06621 9.57087 4.12963C9.01268 4.38127 8.59824 4.60748 8.18597 4.88238C8.07814 4.95426 7.9872 5.01346 7.9851 5.01346C7.98299 5.01346 7.98088 4.95216 7.98088 4.87814C7.98088 4.47642 7.90052 4.07045 7.75248 3.72792C7.73769 3.69409 7.72501 3.66238 7.72712 3.66023C7.73348 3.65393 8.6025 3.80401 8.99789 3.88014ZM9.92821 4.38337C9.8521 4.69843 9.64701 5.16574 9.39542 5.60551C9.35098 5.68374 9.31082 5.74718 9.30656 5.74929C9.30237 5.75139 9.24528 5.71966 9.17972 5.68161C8.93446 5.53783 8.65536 5.40252 8.35087 5.27563C8.26633 5.23971 8.1923 5.21008 8.19019 5.20589C8.17536 5.19319 8.85621 4.74282 9.21566 4.52715C9.50111 4.35378 9.96626 4.09581 9.97473 4.10428C9.98108 4.11062 9.95358 4.2819 9.92821 4.38337ZM11.9973 4.82106C11.9973 4.82106 12.0488 4.84432 12.0745 4.85596C12.1002 4.86759 12.1516 4.89086 12.1516 4.89086L12.0438 4.91621C11.1347 5.12552 10.6662 5.28615 9.91558 5.59061C9.85426 5.61598 9.79928 5.63713 9.7951 5.63713C9.79085 5.63713 9.812 5.5885 9.83948 5.52928C10.0657 5.04932 10.3562 4.24176 10.3562 4.24176C10.3562 4.24176 11.6252 4.65191 11.9973 4.82106ZM7.43967 5.36868C7.43967 5.37079 6.47717 6.31593 6.47717 6.31593C6.47717 6.31593 6.39233 5.01135 6.39445 5.00925C6.39445 5.00925 7.43967 5.35598 7.43967 5.36868ZM12.2562 5.36444C12.1293 5.54627 10.812 6.98008 10.812 6.98008C10.812 6.98008 10.2327 6.45971 9.89647 6.18062C9.83304 6.12774 9.7633 6.07066 9.74004 6.05374C9.71677 6.03683 9.69773 6.01991 9.69773 6.01781C9.69773 6.01148 10.0571 5.90334 10.3299 5.79342C10.8078 5.59888 11.459 5.38901 11.9474 5.23887C12.2033 5.15854 12.4761 5.05349 12.4803 5.05774C12.4803 5.05774 12.345 5.23971 12.2562 5.36444ZM12.7638 5.1676C12.7638 5.1676 13.4057 5.63274 13.8032 6.0218C13.9153 6.13176 14.1772 6.42379 14.1729 6.4259C13.9808 6.4259 11.2708 7.04753 11.2708 7.04753C11.2708 7.04753 11.2479 7.01582 11.3515 6.91645C11.9943 6.29694 12.7638 5.1676 12.7638 5.1676ZM8.44602 5.77889C8.63632 5.874 8.92178 6.02627 8.93657 6.03894C8.93868 6.04104 8.83717 6.09391 8.71247 6.15524C8.31493 6.35399 7.43323 6.86993 7.43112 6.86993C7.42266 6.86993 7.99371 5.53998 8.00004 5.53998C8.00004 5.53998 8.23882 5.67531 8.44602 5.77889ZM7.01035 7.028L6.50004 6.74775C6.50004 6.74775 7.64795 5.58436 7.65428 5.5907C7.66063 5.59705 7.01035 7.028 7.01035 7.028ZM10.0572 6.88893C10.1777 6.98829 10.4513 7.21031 10.4513 7.21031L7.97161 8.08082C7.97161 8.08082 8.8985 6.94812 9.26641 6.39627L9.34044 6.28212C9.34044 6.28212 9.84364 6.70921 10.0572 6.88893ZM8.37234 7.03482C8.16514 7.3097 7.41423 8.27228 7.40998 8.2744C7.40362 8.27651 7.16469 7.42212 7.1753 7.41156C7.21546 7.3756 7.83074 6.94389 8.21978 6.73458C8.48196 6.59504 8.89212 6.38783 8.89852 6.39206C8.90273 6.39628 8.54574 6.80435 8.37234 7.03482ZM6.38429 7.04753C6.39064 7.04753 6.69953 7.23471 6.69953 7.23471C6.69953 7.23471 5.837 8.11741 5.85812 8.0857C5.99768 7.87214 6.38007 7.04753 6.38429 7.04753ZM7.01156 8.37962C7.01156 8.37962 5.97431 8.79809 5.65077 8.94607C5.55988 8.98838 5.0376 9.23383 5.11794 9.17461C5.75019 8.71581 6.72695 7.65778 6.83058 7.60572L7.01156 8.37962Z"
  />
  <path fill-rule="evenodd" clip-rule="evenodd"
        d="M5.9089 1.4782C6.39308 1.28159 7.14371 1.01095 7.19023 1.01726C7.21346 1.01937 7.21772 1.02786 7.25367 1.17164C7.31923 1.40846 7.43765 1.73827 7.56238 2.02372C7.72307 2.39163 7.99794 2.93715 8.24745 3.37696L8.29017 3.45316C8.29033 3.45318 8.29 3.45313 8.29017 3.45316C8.13029 3.42838 7.97925 3.40479 7.83623 3.38227C7.80434 3.33189 7.73125 3.1969 7.6663 3.07694C7.60419 2.96223 7.54952 2.86126 7.54549 2.86126C7.55492 2.87069 7.19033 3.10236 6.9527 3.2403C6.76493 3.20945 6.58559 3.17951 6.40735 3.14937C6.47085 3.11824 6.89431 2.88495 7.08507 2.76248C7.29509 2.62764 7.47647 2.47409 7.47647 2.47409C7.46666 2.47409 7.45341 2.47435 7.43687 2.47467C7.3038 2.47723 6.95802 2.48391 6.47964 2.39511C6.02525 2.31076 5.55071 2.16775 5.34548 2.09803L6.30007 3.12532V3.13119C6.20259 3.11463 6.105 3.09795 6.00611 3.08096C5.93178 3.06825 5.84636 3.05363 5.75658 3.03796C5.75016 3.02808 5.7311 3.00454 5.70766 2.97559L5.69536 2.96039C5.65939 2.916 5.03354 2.24858 5.03354 2.24858C5.03354 2.24858 4.46258 2.56539 4.42848 2.71328C4.31153 2.66478 4.19805 2.59875 4.16513 2.4766C4.2112 2.40898 4.33433 2.28978 4.43516 2.21824C4.7481 1.99839 5.25553 1.74465 5.9089 1.4782ZM5.54678 1.91272C5.54678 1.91272 7.03079 2.28148 7.319 2.20282C7.35609 2.19269 7.01596 1.33809 7.01171 1.33601C6.95253 1.34656 5.53833 1.90427 5.54678 1.91272Z"
  />
  <path fill-rule="evenodd" clip-rule="evenodd"
        d="M3.07294 10.6577C3.06161 10.6668 3.0505 10.6757 3.03962 10.6843C2.86837 10.8197 2.61464 11.0734 2.48567 11.2341C2.29325 11.4751 2.14102 11.7309 2.07547 11.9276C1.95916 12.2828 2.01628 12.6423 2.2404 12.9743C2.52796 13.3971 3.10097 13.8285 3.7691 14.1224C4.10954 14.2725 4.68254 14.4649 5.11387 14.5727C5.83063 14.7546 7.2177 14.9512 7.98098 14.9808C8.13531 14.9872 8.34254 14.9872 8.35098 14.9808C8.36791 14.9702 8.48632 14.744 8.62378 14.4628C9.09318 13.505 9.43148 12.6063 9.61542 11.8388C9.72536 11.3737 9.81204 10.7541 9.86911 10.0205C9.88394 9.81536 9.89026 9.12818 9.87757 8.89558C9.85853 8.51499 9.8247 8.20631 9.77188 7.90394C9.77098 7.89921 9.77015 7.89453 9.76939 7.88993C9.65225 7.92188 9.53634 7.95385 9.42208 7.98576C9.49594 8.23556 9.56288 9.03721 9.56288 9.03721C9.56288 9.03721 8.43326 8.41927 8.28088 8.32184C8.14628 8.36417 8.01791 8.40581 7.89695 8.44655C8.1268 8.58743 9.23145 9.26233 9.45848 9.36073C9.5367 9.39456 7.73785 10.2001 7.73785 10.2001C7.73785 10.2001 7.83299 8.72805 7.85182 8.46183C7.72599 8.50463 7.6086 8.54639 7.50101 8.58685C7.48259 8.59376 7.46422 8.60067 7.44589 8.60758C7.44868 8.80082 7.41839 9.19955 7.39397 9.52107C7.37498 9.77111 7.35954 9.97446 7.36595 9.99817C7.32909 9.95656 6.88147 9.25113 6.66974 8.90957C6.54799 8.95854 6.4283 9.00749 6.31058 9.05647C6.41919 9.21924 7.16774 10.3587 7.16774 10.3587C7.16774 10.3587 5.41472 10.9609 5.29574 11C5.2781 11.0059 6.15035 9.32123 6.28118 9.06872C6.0845 9.15078 5.89329 9.23294 5.70703 9.31544C5.66354 9.3989 5.59613 9.5268 5.51803 9.67498C5.26881 10.1478 4.91076 10.8272 4.87402 10.9278C4.83735 10.9004 4.68582 10.6936 4.65716 10.5427C4.62543 10.3777 4.63179 10.0902 4.66775 9.91258L4.67 9.90183C4.68421 9.83389 4.69031 9.8047 4.70405 9.7866C4.54424 9.86638 4.38794 9.94687 4.2347 10.0283C4.23409 10.0411 4.23236 10.0578 4.22874 10.0796C4.22027 10.1346 4.20971 10.2361 4.20551 10.3058C4.19247 10.5433 4.26659 10.6808 4.3708 10.8741C4.40204 10.932 4.43599 10.995 4.47111 11.0672C4.51339 11.1539 4.5451 11.2278 4.5451 11.2278C4.5451 11.2278 2.54972 11.7725 2.54122 11.7746C2.52645 11.7788 2.86889 11.1791 3.19872 10.8365C3.35124 10.6782 3.77647 10.3357 4.03123 10.1379C4.02419 10.1417 4.01715 10.1456 4.01013 10.1494C3.5788 10.3862 3.39484 10.494 3.25953 10.5955L3.07294 10.6577ZM4.87402 10.9278C4.86835 10.9433 4.87033 10.9451 4.88154 10.9302C4.88052 10.9316 4.87792 10.9307 4.87402 10.9278ZM7.36595 9.99817C7.36654 10.0004 7.36732 10.001 7.36831 10C7.36808 10.0003 7.36728 9.99967 7.36595 9.99817ZM9.42668 11.0207L9.55836 9.80034C9.55836 9.80034 8.01358 10.4836 8.00018 10.4971L9.42668 11.0207ZM7.72726 10.6378C7.66595 10.6019 7.61521 10.5744 7.6131 10.5765C7.61223 10.5774 7.60994 10.5839 7.60639 10.5941C7.60125 10.6087 7.59348 10.631 7.58346 10.6547C7.44815 11.0734 7.18171 11.676 6.91741 12.1707C6.86881 12.2616 6.83073 12.3356 6.83073 12.3378C6.83073 12.3399 6.85399 12.3335 6.87936 12.323C6.90477 12.3124 7.04008 12.2616 7.17754 12.2109C8.12265 11.8578 9.04665 11.473 9.32785 11.3165L9.39553 11.2785L9.34686 11.2679C8.80984 11.1432 8.17975 10.9 7.72726 10.6378ZM7.24096 10.7837C7.26212 10.733 7.27906 10.6886 7.27691 10.6864C7.27481 10.6864 7.20713 10.7139 7.12465 10.7478C6.54316 10.9973 5.9575 11.2003 5.26819 11.3884L5.0758 11.4413L5.11388 11.4878C5.37393 11.8155 5.77142 12.1538 6.2197 12.4287C6.29581 12.4752 6.35926 12.5133 6.36134 12.5133C6.36348 12.5133 6.42905 12.4012 6.50726 12.2617C6.81595 11.7162 7.05702 11.2298 7.24096 10.7837ZM8.87622 13.029C8.87622 13.029 9.06748 12.583 9.14148 12.3187C9.23029 12.0037 9.34587 11.6845 9.34587 11.6845C9.34533 11.6845 9.32399 11.6939 9.28572 11.7109C9.0945 11.7956 8.48099 12.0676 7.92553 12.2835C7.4099 12.484 6.90891 12.63 6.75204 12.6758C6.71931 12.6853 6.70144 12.6905 6.70179 12.6909C6.71448 12.7014 8.87622 13.029 8.87622 13.029ZM3.051 13.1927C3.07185 13.208 3.08945 13.2208 3.10366 13.2326C3.10366 13.2326 4.54723 11.5851 4.54299 11.5808C4.54222 11.5808 4.26261 11.6737 3.90737 11.7917C3.29474 11.9952 2.45707 12.2734 2.43701 12.2788C2.41589 12.2851 2.41589 12.3359 2.43915 12.4374C2.4606 12.5334 2.58645 12.7401 2.73008 12.9021C2.8709 13.061 2.97986 13.1407 3.051 13.1927ZM4.90635 11.9018L4.83871 11.8257C4.83871 11.8257 3.64646 13.1053 3.44772 13.3929L3.38641 13.4817L3.42445 13.5092C3.44563 13.524 3.46467 13.5366 3.46678 13.5366C3.46886 13.5366 3.74587 13.4415 4.08204 13.3231C4.68041 13.1159 5.78892 12.6571 5.80368 12.6465C5.80793 12.6444 5.7572 12.6106 5.68953 12.5725C5.31316 12.3526 5.21086 12.2423 4.90635 11.9018ZM8.68089 13.414C8.37428 13.3887 6.55385 13.0454 6.56415 13.035C6.56415 13.037 5.62955 14.2041 5.55187 14.2773C5.54848 14.2788 5.54674 14.2798 5.54674 14.2805C5.54674 14.2816 5.5485 14.2805 5.55187 14.2773C5.65124 14.2342 7.17229 13.8388 8.07844 13.6033C8.46477 13.5028 8.73998 13.4313 8.74431 13.4288C8.75278 13.4225 8.72741 13.4182 8.68089 13.414ZM5.02466 14.1429C5.02466 14.1429 6.13088 12.9045 6.12877 12.9024C6.12759 12.9012 5.4281 13.1884 4.817 13.4393C4.33763 13.6362 3.91258 13.8107 3.92182 13.8061C3.87969 13.8165 5.02466 14.1429 5.02466 14.1429ZM8.10365 14.6775C8.11848 14.6796 8.56459 13.828 8.55402 13.8068C8.49483 13.8153 6.12467 14.4526 6.12467 14.4526C6.12467 14.4526 8.0677 14.6754 8.10365 14.6775Z"
  />
</svg>

<svg xmlns="http://www.w3.org/2000/svg" width="16" height="16" fill="#F26522" data-big="true"><path fill-rule="evenodd" d="M4.137 2.658c.027.068.133.15.224.235 0 0 .94.917 1.055 1.048.52.601.746 1.193.768 2.01.012.524-.087.984-.334 1.52-.44.96-1.369 2.019-2.8 3.194l.21-.07c.135-.101.319-.209.75-.446.996-.545 2.117-1.046 3.49-1.562 1.98-.744 7.279-1.929 7.279-1.929s-.315-.471-.455-.644a5.1 5.1 0 0 0-1.501-1.25c-.829-.463-1.901-.825-3.258-1.093-.256-.05-.819-.148-1.275-.218-.969-.15-1.595-.254-2.284-.372a24 24 0 0 1-.863-.159 6 6 0 0 1-.56-.15c-.152-.059-.372-.118-.419-.298 0 0-.072.074-.027.184m1.474.679c.014.015.343.878.343.878s-.1-.15-.402-.49c-.3-.34-.552-.6-.552-.572 0 0 .596.169.61.184m1.557.272-.932.749s-.249-.945-.249-.949zm.572 1.436s-1.345-.397-1.345-.402c0-.012 1.167-1.01 1.186-1.004zM8.998 3.88c.294.057.72.146.746.157.013.004-.031.03-.173.093a9 9 0 0 0-1.385.752 7 7 0 0 1-.2.131c-.003 0-.005-.06-.005-.135 0-.402-.08-.808-.229-1.15a.3.3 0 0 1-.025-.068c.006-.006.875.144 1.27.22m.93.503c-.076.315-.281.783-.533 1.223a1.4 1.4 0 0 1-.088.143 1 1 0 0 1-.127-.067 7 7 0 0 0-.83-.406c-.084-.036-.158-.066-.16-.07-.015-.013.666-.463 1.026-.679.285-.173.75-.431.759-.423.006.007-.021.178-.047.28m2.07.438.077.035.077.035-.108.025c-.91.21-1.378.37-2.128.675a2 2 0 0 1-.12.046.6.6 0 0 1 .043-.108c.227-.48.517-1.287.517-1.287s1.27.41 1.641.58M7.44 5.37c0 .002-.963.947-.963.947s-.085-1.305-.083-1.307c0 0 1.046.347 1.046.36m4.816-.005c-.127.182-1.444 1.616-1.444 1.616s-.58-.52-.916-.8a5 5 0 0 0-.156-.126.2.2 0 0 1-.042-.036c0-.007.36-.115.632-.225.478-.194 1.129-.404 1.617-.554.256-.08.53-.186.533-.181 0 0-.135.182-.224.306m.508-.196s.642.465 1.04.854c.111.11.373.402.369.404-.192 0-2.902.622-2.902.622s-.023-.032.08-.132c.643-.62 1.413-1.748 1.413-1.748m-4.318.61c.19.096.476.248.49.26.003.003-.099.056-.224.117-.397.199-1.279.715-1.28.715-.01 0 .562-1.33.568-1.33 0 0 .239.135.446.239M7.01 7.029l-.51-.28S7.648 5.584 7.654 5.59 7.01 7.028 7.01 7.028m3.047-.14c.12.1.394.322.394.322l-2.48.87S8.9 6.949 9.267 6.397l.074-.114zm-1.685.147c-.207.275-.958 1.237-.962 1.24-.006.002-.245-.853-.235-.863.04-.036.656-.468 1.045-.677.262-.14.672-.347.679-.343.004.004-.353.412-.527.643m-1.988.013c.007 0 .316.187.316.187s-.863.882-.842.85c.14-.213.522-1.037.526-1.037m.628 1.332s-1.038.418-1.361.566c-.091.042-.613.288-.533.229.632-.46 1.609-1.517 1.713-1.57z" clip-rule="evenodd"/><path fill-rule="evenodd" d="M5.909 1.478c.484-.196 1.235-.467 1.281-.46.023.001.028.01.064.154.065.236.184.566.308.852.161.368.436.913.685 1.353l.043.076-.454-.07a8 8 0 0 1-.17-.306c-.062-.115-.116-.216-.12-.216.009.01-.356.241-.593.38l-.546-.092c.064-.03.487-.264.678-.387.21-.134.391-.288.391-.288h-.04c-.132.003-.478.01-.956-.079a9 9 0 0 1-1.135-.297L6.3 3.125v.006l-.543-.093-.05-.062-.012-.016a81 81 0 0 0-.661-.711s-.571.316-.606.464c-.116-.048-.23-.114-.263-.236.046-.068.17-.187.27-.259.313-.22.82-.473 1.474-.74m-.362.435s1.484.368 1.772.29c.037-.01-.303-.865-.307-.867-.06.01-1.474.568-1.465.577M3.073 10.658l-.033.026c-.172.136-.425.39-.554.55-.193.241-.345.497-.41.694-.117.355-.06.714.164 1.046.288.423.861.854 1.53 1.148.34.15.913.343 1.344.45.717.183 2.104.38 2.867.409.154.006.362.006.37 0 .017-.01.135-.237.273-.518.47-.958.807-1.857.991-2.624.11-.465.197-1.085.254-1.819.015-.205.021-.892.009-1.124a8 8 0 0 0-.109-1.006l-.347.096c.074.25.14 1.051.14 1.051s-1.129-.618-1.281-.715q-.202.063-.384.125c.23.14 1.334.815 1.561.914.079.034-1.72.84-1.72.84s.095-1.473.114-1.74a12 12 0 0 0-.406.147c.003.193-.028.592-.052.913a6 6 0 0 0-.028.477A37 37 0 0 1 6.67 8.91l-.36.146c.11.163.858 1.303.858 1.303s-1.753.602-1.872.641c-.018.006.854-1.679.985-1.931q-.295.123-.574.246c-.043.084-.11.212-.189.36-.25.473-.607 1.152-.644 1.253a.95.95 0 0 1-.217-.385 2 2 0 0 1 .01-.63l.003-.011c.014-.068.02-.097.034-.115q-.24.12-.47.241 0 .02-.005.052a3 3 0 0 0-.023.226c-.014.237.06.375.165.568a5 5 0 0 1 .174.354l-2.004.547c-.015.004.328-.596.658-.939.152-.158.577-.5.832-.698l-.02.011c-.432.237-.616.345-.751.447zm1.801.27q-.01.024.008.002-.002.002-.008-.002m2.492-.93q0 .003.002.002zm2.06 1.023.132-1.22s-1.544.683-1.558.696zm-1.699-.383a1 1 0 0 0-.114-.062l-.007.018q-.008.024-.023.06a10.4 10.4 0 0 1-.666 1.517c-.048.09-.086.165-.086.167s.023-.004.048-.015l.299-.112c.945-.353 1.869-.738 2.15-.895l.068-.038-.05-.01a6.4 6.4 0 0 1-1.619-.63m-.486.146a1 1 0 0 0 .036-.098l-.152.062c-.582.25-1.168.452-1.857.64l-.192.053.038.047c.26.328.657.666 1.106.94l.141.085c.002 0 .068-.112.146-.251.309-.546.55-1.032.734-1.478m1.635 2.245s.191-.446.265-.71c.09-.315.205-.635.205-.635l-.06.027c-.191.085-.805.357-1.36.572-.516.201-1.017.347-1.174.393l-.05.015c.012.01 2.174.338 2.174.338m-5.825.164.053.04s1.443-1.648 1.439-1.652l-.636.21-1.47.488q-.032.008.002.158c.022.096.147.303.291.465.14.159.25.239.321.29m1.855-1.291-.067-.076s-1.193 1.28-1.391 1.567l-.062.089.038.027c.022.015.04.028.043.028s.279-.096.615-.214a35 35 0 0 0 1.722-.677.6.6 0 0 0-.114-.074c-.377-.22-.48-.33-.784-.67m3.775 1.512c-.307-.025-2.127-.369-2.117-.379 0 .002-.934 1.17-1.012 1.242l-.005.004q0 .001.005-.004c.1-.043 1.62-.438 2.526-.674.387-.1.662-.172.666-.174.009-.007-.017-.01-.063-.015m-3.656.729s1.106-1.239 1.104-1.24c-.001-.002-.7.285-1.312.536-.48.197-.904.372-.895.367-.042.01 1.103.337 1.103.337m3.079.534c.014.003.46-.849.45-.87-.06.008-2.43.646-2.43.646s1.944.222 1.98.225" clip-rule="evenodd"/></svg>
